X:17049
T:The New Rigged Ship
M:6/8
L:1/8
K:G
|:DEF|GFG G2 B|GFG G2 B|AFD {A}DEF|AFD {A}DEF|GFG G2 B|GFG G2 B|AFD
{A}D EF|G3:| |:GBc|d2 B d2 B|~G3 GBd|e2 c e2 c|~A3 ABc|d2 B d2 B|~G3
GAB|AFD {A}DEF|G3:|
